icons/solid/calendar.svg

<svg width="24" height="24" viewBox="0 0 24 24" fill="none" xmlns="http://www.w3.org/2000/svg">
<path fill-rule="evenodd" clip-rule="evenodd" d="M8 2C8.55228 2 9 2.44772 9 3V4H15V3C15 2.44772 15.4477 2 16 2C16.5523 2 17 2.44772 17 3V4H18C19.6569 4 21 5.34315 21 7V8H3V7C3 5.34315 4.34315 4 6 4H7V3C7 2.44772 7.44772 2 8 2ZM3 10V19C3 20.6569 4.34315 22 6 22H18C19.6569 22 21 20.6569 21 19V10H3Z" fill="currentColor"/>
</svg>

<svg width="24" height="24" fill="none" xmlns="http://www.w3.org/2000/svg"><path fill-rule="evenodd" clip-rule="evenodd" d="M8 2a1 1 0 011 1v1h6V3a1 1 0 112 0v1h1a3 3 0 013 3v1H3V7a3 3 0 013-3h1V3a1 1 0 011-1zm-5 8v9a3 3 0 003 3h12a3 3 0 003-3v-9H3z" fill="currentColor"/></svg>
